X:39
T:Always Welcome 
C:Joe Buchanan's Scottish Tome - Page 149.3
I:149 3
R:Hornpipe
Z:Carl Allison
L:1/8
M:4/4
K:A
|: "A"E2 EF "Eo"A2 AB | "A"cBAB "C#m"ce e2 | "F#m"f2 fg "D"agaf | "A"ecBc "D"AFF2 |
"A"E2 EF "F#m"A2 AB | "A"cBAB "C#m"ce e2 | "F#m"f2 fg "Bm"agaf | "E7"ecBc A2 A2 :|
|: "A"A2 Ac "Eo"ec c2 | "A"ecac ec c2 | "Bm"B2 Bd fefg | "Bm"agaf ecBc |
"A"A2 Ac ec c2 | "A"ecac "C#m"ec c2 | "F#m"f2 fg "Bm"agaf | "E7"ecBc A2 A2 :|

